!!!OTL: "Trotz Napoleon" FRANZOSEN ALLE ZIEHT NUR FRISCH
!!!ARE: Europa, Mitteleuropa, Deutschland, Schlesien
!!!SCT: Z1353
!!!YEM: Copyright 1995, estate of Helmut Schaffrath.
**kern
*ICvox
*Ivox
*M4/4
*k[f#]
*G:
{4d
=1
8b
8a
8g
8f#
4g
8d
8d
=2
8e
8e
8f#
8f#
4g}
{4d
=3
8b
8a
8g
8f#
4g
8d
8d
=4
8e
8e
8f#
8f#
4g
8r}
{8b
=5
4a
8a
8a
8a
8g
8a
8b
=6
4cc
4b
4a
8r}
{8b
=7
4a
8a
8a
8a
8g
8a
8b
=8
4cc
4b
4a}
{8g
8b
=9
4dd
8d
8d
4g
8g
8b
=10
4dd
8d
8d
4g}
{8g
8b
=11
4dd
8d
8d
4g
8g
8b
=12
4dd
8d
8d
4g}
{8b
8b
=13
4b
8b
8b
4b
8b
8b
=14
8b
8b
8b
8b
8b
8b}
{8b
8b
=15
8b
8b
8b
8b
4b
4r}
=16
{4.dd
8cc
4b
4b
=17
4a
4a
8g
8a
8b
8cc}
=18
{4.dd
8cc
4b
4b
=19
4a
4a
4g}
==
!!!AGN: Zech -, Schalks - Lied
!!!ONB: ESAC (Essen Associative Code) Database: ZUCCAL
!!!AMT: simple quadruple
!!!AIN: vox
!!!EED: Helmut Schaffrath
!!!EEV: 1.0
*-
